resources/svg/anja-o.svg

<svg xmlns="http://www.w3.org/2000/svg" viewBox="0 0 15 15" fill="none"><path d="M9.00746 4.4005L9.04072 3.9016L9.00746 4.4005ZM2.95478 8.13786L2.49374 7.94437L2.95478 8.13786ZM7.5 14C5.87329 14 4.39916 13.042 3.73849 11.5555L2.82468 11.9616C3.64585 13.8093 5.4781 15 7.5 15V14ZM11.2615 11.5555C10.6008 13.042 9.12671 14 7.5 14V15C9.5219 15 11.3541 13.8093 12.1753 11.9616L11.2615 11.5555ZM2 15V6H1V15H2ZM7.5 1C10.5376 1 13 3.46243 13 6.5H14C14 2.91015 11.0899 0 7.5 0V1ZM2 6.5C2 3.46243 4.46243 1 7.5 1V0C3.91015 0 1 2.91015 1 6.5H2ZM13 6.5V15H14V6.5H13ZM8.9742 4.89939L10.4667 4.99889L10.5333 4.00111L9.04072 3.9016L8.9742 4.89939ZM11 4.5V3H10V4.5H11ZM3.41582 8.33136C4.32054 6.17573 6.51869 4.73569 8.9742 4.89939L9.04072 3.9016C6.14682 3.70868 3.55895 5.40634 2.49374 7.94437L3.41582 8.33136ZM10.1464 4.85355C10.6164 5.32348 11.4761 6.3438 11.8352 8.19581L12.8169 8.00545C12.4098 5.90613 11.4221 4.71504 10.8536 4.14645L10.1464 4.85355ZM6.5 13H8V12H6.5V13ZM8 13C9.10457 13 10 12.1046 10 11H9C9 11.5523 8.55228 12 8 12V13ZM12.5 9H10.5V10H12.5V9ZM8.5 8H12V7H8.5V8ZM3.5 8H6.5V7H3.5V8ZM6.5 8H8.5V7H6.5V8ZM4.5 9H2.5V10H4.5V9ZM6 7.5C6 8.32843 5.32843 9 4.5 9V10C5.88071 10 7 8.88071 7 7.5H6ZM10.5 9C9.67157 9 9 8.32843 9 7.5H8C8 8.88071 9.11929 10 10.5 10V9ZM3.73849 11.5555C3.2427 10.44 3.00886 9.30102 3.41582 8.33136L2.49374 7.94437C1.92348 9.30312 2.29491 10.7696 2.82468 11.9616L3.73849 11.5555ZM12.1753 11.9616C12.7043 10.7715 13.085 9.38793 12.8169 8.00545L11.8352 8.19581C12.0466 9.2858 11.7554 10.4442 11.2615 11.5555L12.1753 11.9616Z" fill="black"/></svg>

<svg xmlns="http://www.w3.org/2000/svg" viewBox="0 0 15 15" fill="none"><path d="M9.007 4.4l.034-.498-.034.498zM2.955 8.139l-.461-.194.46.194zM7.5 14c-1.627 0-3.1-.958-3.762-2.444l-.913.406A5.116 5.116 0 007.5 15v-1zm3.761-2.444A4.116 4.116 0 017.5 14v1a5.116 5.116 0 004.675-3.038l-.914-.406zM2 15V6H1v9h1zM7.5 1A5.5 5.5 0 0113 6.5h1A6.5 6.5 0 007.5 0v1zM2 6.5A5.5 5.5 0 017.5 1V0A6.5 6.5 0 001 6.5h1zm11 0V15h1V6.5h-1zM8.974 4.9l1.493.099.066-.998-1.492-.1-.067.998zM11 4.5V3h-1v1.5h1zM3.416 8.331A5.624 5.624 0 018.974 4.9l.067-.997a6.624 6.624 0 00-6.547 4.042l.922.387zm6.73-3.477c.47.47 1.33 1.49 1.69 3.342l.98-.19c-.406-2.1-1.394-3.291-1.962-3.86l-.708.708zM6.5 13H8v-1H6.5v1zM8 13a2 2 0 002-2H9a1 1 0 01-1 1v1zm4.5-4h-2v1h2V9zm-4-1H12V7H8.5v1zm-5 0h3V7h-3v1zm3 0h2V7h-2v1zm-2 1h-2v1h2V9zM6 7.5A1.5 1.5 0 014.5 9v1A2.5 2.5 0 007 7.5H6zM10.5 9A1.5 1.5 0 019 7.5H8a2.5 2.5 0 002.5 2.5V9zm-6.762 2.556c-.495-1.116-.73-2.255-.322-3.225l-.922-.387c-.57 1.36-.2 2.826.33 4.018l.914-.406zm8.437.406c.53-1.19.91-2.574.642-3.957l-.982.19c.212 1.09-.08 2.25-.574 3.36l.914.407z" fill="currentColor"/></svg>
